T: McKechnie's Farewell
M: 2/4
L: 1/8
K: Dmaj
DE|F2 FA|E2 DE|FE FA|E2 DE|F2 FA|dc BA|AB BA|B2 zc|
dc BA|BA FD|FE FA|E2 DE|FE FA|ED B,A,|B,D DE|D2:|
|:FA|B2 BA|Bd c A-|A A AF|AB (3FED|E2 ED|EF DE|FA AF|AB FA|
B2 BA|Bd c A-|A A AF|AB (3FED|E2 ED|EF DB,|A,D DC|D2:|
